X:856
T:Doon In the Wee Room
S:Memory
Z:Nigel Gatherer
L:1/8
M:4/4
K:D
F2 GF E2 D2 | ddcB A4 | ddcB A2 F2 | AAGF E2
FG | F2 GF E2 D2 | ddcB A4 | d2cB A2 F2 | AAGE D4 |]
